!!!OTL: AUF DEM RASEN IM WALDE
!!!ARE: Europa, Mitteleuropa, Deutschland
!!!SCT: F0971
!!!YEM: Copyright 1995, estate of Helmut Schaffrath.
**kern
*ICvox
*Ivox
*M3/8
*k[f#c#g#d#]
*E:
{16g#
16a
=1
8b
8g#
8cc#
=2
8b
8g#}
{8b
=3
8cc#
8ee
8cc#
=4
4b}
{16g#
16a
=5
8b
8g#
8cc#
=6
8b
8g#}
{8e
=7
8cc#
8a
8g#
=8
4f#}
{16f#
16g#
=9
8.a
16b
16cc#
16dd#
=10
8ee
8b}
{8g#
=11
8.cc#
16b
8a
=12
8b
8r}
{16e
16e
=13
8f#
8f#
8g#
=14
16a
16b
8cc#
16r}
{16b
=15
8a
8f#
8b
=16
8g#
8r}
{16e
16e
=17
8f#
8f#
8g#
=18
16a
16b
8cc#
16r}
{16cc#
=19
8b
8g#
16f#
16b
=20
4e}
==
!!!AGN: Natur - Lied, Wald
!!!ONB: ESAC (Essen Associative Code) Database: FINK
!!!AMT: simple triple
!!!AIN: vox
!!!EED: Helmut Schaffrath
!!!EEV: 1.0
*-
